_includes/icon-bluesky.svg

<svg class="bluesky" viewBox="0 0 568 501" fill="none" xmlns="http://www.w3.org/2000/svg">
  <path d="M123.121 33.6637C188.241 82.5526 258.281 181.681 284 234.873C309.719 181.681 379.759 82.5526 444.879 33.6637C491.866 -1.61183 568 -28.9064 568 57.9464C568 75.2916 558.055 203.659 552.222 224.501C531.947 296.954 458.067 315.434 392.347 304.249C507.222 323.8 536.444 388.56 473.333 453.32C353.473 576.312 301.061 422.461 287.631 383.039C285.169 375.812 284.017 372.431 284 375.306C283.983 372.431 282.831 375.812 280.369 383.039C266.939 422.461 214.527 576.312 94.6667 453.32C31.5556 388.56 60.7778 323.8 175.653 304.249C109.933 315.434 36.0535 296.954 15.7778 224.501C9.94525 203.659 0 75.2916 0 57.9464C0 -28.9064 76.1345 -1.61183 123.121 33.6637Z" />
</svg>

<svg xmlns="http://www.w3.org/2000/svg" fill="none" class="bluesky" viewBox="0 0 568 501"><path d="M123.121 33.664C188.241 82.553 258.281 181.68 284 234.873c25.719-53.192 95.759-152.32 160.879-201.21C491.866-1.611 568-28.906 568 57.947c0 17.346-9.945 145.713-15.778 166.555-20.275 72.453-94.155 90.933-159.875 79.748C507.222 323.8 536.444 388.56 473.333 453.32c-119.86 122.992-172.272-30.859-185.702-70.281-2.462-7.227-3.614-10.608-3.631-7.733-.017-2.875-1.169.506-3.631 7.733-13.43 39.422-65.842 193.273-185.702 70.281-63.111-64.76-33.89-129.52 80.986-149.071-65.72 11.185-139.6-7.295-159.875-79.748C9.945 203.659 0 75.291 0 57.946 0-28.906 76.135-1.612 123.121 33.664"/></svg>
